X:1
T:Title
%%score 1 2
L:1/8
Q:1/4=85
M:6/8
K:Bb
V:1 treble nm="Grand Piano, Soprano"
V:2 bass nm="Choir Pad, Ceuta, W. Weckerly, 1891"
V:1
 [DF]>[_D=E][=DF] [DF]>[_DE][=DF] | [DF][DB][Fc] [Fd]3 | [Ge]>[Fd][Ec] [Fd]>[Ec][DB] | %3
w: By~William~M.~Weckerly,~1891 * * * * *|||
 [FB][FA][FB] [Fc]3 | [DF]>[_D=E][=DF] [DF]>[_DE][=DF] | [DF][DB][Fc] [Fd]3 | %6
w: |||
 [Ge]>[Fd][Ec] [Fd]>[Ec][DB] | [Ac][EG][EA] [DB]3 | [Ac]>[_A=B][=Ac] [Ac]>[_AB][=Ac] | %9
w: |||
 [Fd][Fc][FB] [EA]3 | [Ac]>[_A=B][=Ac] [Ac]>[_AB][=Ac] | [Fd][DB][EG] [DF]3 | %12
w: |||
 [DF]>[_D=E][=DF] [DF]>[_DE][=DF] | [DF][DB][Fc] [Fd]3 | [Ge]>[Fd][Ec] [Fd]>[Ec][DB] | %15
w: |||
 [Ac][EG][EA] [DB]3- | [DB]6 |] %17
w: ||
V:2
 [B,,B,]>[B,,A,][B,,B,] [B,,B,]>[B,,A,][B,,B,] | [B,,B,][B,,F,][B,,F,] [B,,B,]3 | %2
 [C,C]>[D,B,][E,G,] [F,A,]>[F,A,][F,B,] | [F,B,D][F,C][F,B,D] [F,A,]3 | %4
 [B,,B,]>[B,,B,][B,,B,] [B,,B,]>[B,,B,][B,,B,] | [B,,B,][B,,F,][B,,F,] [B,,B,]3 | %6
 [C,C]>[D,B,][E,G,] [F,B,]>[F,B,][F,B,] | [F,A,][F,B,][F,C] [B,,F,]3 | F,>F,F, F,>F,F, | %9
 [F,B,][F,A,][F,D] [F,C]3 | F,>F,F, F,>F,F, | [B,,B,][B,,B,][B,,B,] [B,,B,]3 | %12
 [B,,B,]>[B,,B,][B,,B,] [B,,B,]>[B,,B,][B,,B,] | [B,,B,][B,,F,][B,,F,] [B,,B,]3 | %14
 [C,C]>[D,B,][E,G,] [F,B,]>[F,B,][F,B,] | [F,A,][F,B,][F,C] [B,,F,]3- | [B,,F,]6 |] %17

